X:1
T:010 - Auxílio Divino
T:Letra: Andrew Reed (1787-1862)
T:Trad.: William Edwin Entzminger (1859-1930)
T:Música: Louis Moureau Gottschalk (1829-1869)
L:1/4
Q:1/4=110
M:3/4
K:Bbmaj
V:1
 "Bb"F2 G | (F B) d | "F"d2 c | "Gm"B3 | (B A) B | "Bb/F"(B f) d | "C7"c2 (d/c/) | "F7"(c2 F) | "Bb"F2 G | (F B) d | "D7"d2 (e/d/) | "Gm"d3 | "Edim"(B A) G | "Bb/F"(F e) d | "F7"d2 c | "Bb"B3 |] 
w: 1.~San-to Deus,_ vem in-fla-mar Nos_sos dé_beis co-ra_ções;_ Vem as tre_vas dis-si_par, Li_vra-nos_ deim-per-fei-ções.  
w: 2.~Sim, ó Deus,_ vem di-ri-gir Es_te cul_toa ce-le_brar;_ Vem, oh, vem_nos re-ves_tir De_ fer-vor_ pra Te lou-var!       
W: 
W: 1. Santo Deus, vem inflamar
W: Nossos débeis corações;
W: Vem as trevas dissipar,
W: Livra-nos de imperfeições.
W: 
W:
W: 2. Sim, ó Deus, vem dirigir
W: Este culto a celebrar;
W: Vem, oh, vem-nos revestir
W: De fervor pra Te louvar!
W:         
W: 





%wordsfont Times-Roman 13.0
%vocalfont Times-Roman 13.0
